fonts/editor-html.svg

<?xml version="1.0" encoding="UTF-8" standalone="no"?><!DOCTYPE svg PUBLIC "-//W3C//DTD SVG 1.1//EN" "http://www.w3.org/Graphics/SVG/1.1/DTD/svg11.dtd"><svg width="200px" height="200px" version="1.1" xmlns="http://www.w3.org/2000/svg" xmlns:xlink="http://www.w3.org/1999/xlink" xml:space="preserve" xmlns:serif="http://www.serif.com/" style="fill-rule:evenodd;clip-rule:evenodd;stroke-linejoin:round;stroke-miterlimit:1.41421;"><path d="M184.176,90.977l0.074,-0.094l9.52,12.018l-0.088,0.113l0.088,0.112l-9.52,12.019l-0.074,-0.094l-40.726,51.571l-9.52,-12.019l40.74,-51.589l-45.5,-57.617l9.52,-12.019l45.486,57.599Zm-168.352,0l45.486,-57.599l9.52,12.019l-45.5,57.617l40.74,51.589l-9.52,12.019l-40.726,-51.571l-0.074,0.094l-9.52,-12.019l0.088,-0.112l-0.088,-0.113l9.52,-12.018l0.074,0.094Zm66.752,56.077l-17.784,0l0,-88.081l17.784,0l0,34.668l34.848,0l0,-34.668l17.784,0l0,88.081l-17.784,0l0,-38.513l-34.848,0l0,38.513Z"/></svg>

<?xml version="1.0" encoding="UTF-8" standalone="no"?>
<!DOCTYPE svg PUBLIC "-//W3C//DTD SVG 1.1//EN" "http://www.w3.org/Graphics/SVG/1.1/DTD/svg11.dtd">
<svg width="200px" height="200px" version="1.1" xmlns="http://www.w3.org/2000/svg" xmlns:xlink="http://www.w3.org/1999/xlink" xml:space="preserve" xmlns:serif="http://www.serif.com/" style="fill-rule:evenodd;clip-rule:evenodd;stroke-linejoin:round;stroke-miterlimit:1.41421;">
    <path d="M184.176,90.977L184.25,90.883L193.77,102.901L193.682,103.014L193.77,103.126L184.25,115.145L184.176,115.051L143.45,166.622L133.93,154.603L174.67,103.014L129.17,45.397L138.69,33.378L184.176,90.977ZM15.824,90.977L61.31,33.378L70.83,45.397L25.33,103.014L66.07,154.603L56.55,166.622L15.824,115.051L15.75,115.145L6.23,103.126L6.318,103.014L6.23,102.901L15.75,90.883L15.824,90.977ZM82.576,147.054L64.792,147.054L64.792,58.973L82.576,58.973L82.576,93.641L117.424,93.641L117.424,58.973L135.208,58.973L135.208,147.054L117.424,147.054L117.424,108.541L82.576,108.541L82.576,147.054Z"/>
</svg>
